X:1
T:Dinky Dorian's
M:2/4
K:D
| {g}ed |: {g}cd{g}B{d}c {g}AB{g}cd | {g}eg{a}fd {g}e2 {A}ef | {a}gB{gBdBGB}B2 {a}gBaB| {a}gB{gBdBGB}B2 gf{g}ed |
%
| {g}cd{g}B{d}c {g}AB{g}cd | {g}eg{a}fd {g}e2 {A}ef | g{a}g{f}gd {g}ef{g}ed| {g}cd{g}B{d}c [1 {g}A2 {g}ed :| [2 {g}A2 (3 {g}efg |
%
|: aA {gAGAG}A2 aAgA |aA{gAGAG}A2 ag{a}ef | {a}gB{gBdBGB}B2 {a}gBaB| {a}gB{gBdBGB}B2 ag{a}eg |
%
| [1 aA {gAGAG}A2 aAgA |aA{gAGAG}A2 ag{a}ef | g{a}g{f}gd {g}ef{g}ed| {g}cd{g}B{d}c {g}A2 (3{g}efg :|
%
| [2 aA{gAGAG}A2 {a}gA{gAGAG}A2 | {g}fA {gAGAG}A2 {g}e4 | g{a}g{f}gd {g}ef{g}ed| {g}cd{g}B{d}c {g}A4 |
